X:340
T: Fair Weather
S: B.Breathnach: "Ceol Rince na hEireann" II/75 (gan ainm)
Z: B.Black
L: 1/8
M: 12/8
R: slide
Q: 375
K: D
B|A2F EFE D3 D2E|F2D EFG A3 d3|
F2F E2G F2D D2E|1 FFF G2E D3 D2 :|2\
FFF G2E D3 D3||
ABA d2e f3 f3|Bcd e2f e2d B2d|
ABc d2e f2d c2d|efe f2e d3 d3 :|

